X:1
T:I conscrits del legadoc
T:I conscrits del legadoc
T:Mauzrka
%%score 1 2
L:1/8
M:3/4
K:G
V:1 treble nm="Piano" snm="Pno."
V:2 bass nm="Acordeón" snm="Acord."
V:1
 G>A |"G" B3 B d>B |"G" G4 B>c |"G" d3 d e>c |"D" [Fd]4 G>A |"G" B3 B d>B |"G" G4 B>c | %7
"G" d3 d e>c |"D" [Fd]4 G>B |:"G" d3 d B>G |"Am" c3 c A>c |"G" B3 B A>G |"D" A4 G>B |"G" d3 d B>G | %14
"C" c6 |"G" B>d B>G"D" A>F |"G" G6 :| %17
V:2
 z2 | G,2 [B,D]2 [B,D]2 | G,2 [B,D]2 [B,D]2 | G,2 [B,D]2 [B,D]2 | D,2 [F,A,]2- [F,A,]2 | %5
 G,2 [B,D]2 [B,D]2 | G,2 [B,D]2 [B,D]2 | G,2 [B,D]2 [B,D]2 | D,2 [F,A,]2- [F,A,]2 |: %9
 G,2 [B,D]2 [B,D]2 | A,2 [CE]2- [CE]2 | G,2 [B,D]2 [B,D]2 | D,2 [F,A,]2- [F,A,]2 | %13
 G,2 [B,D]2 [B,D]2 | C2 [EG]2- [EG]2 | G,2 [B,D]2 D,2 | G,2- G,4 :| %17

